gama.ui.shared/icons_svg/light/editor/local.menu.svg

<svg height="24.75" viewBox="63.625 -3230.375 24.75 24.75" width="24.75" xmlns="http://www.w3.org/2000/svg"><path d="m82.2347-3225c-.27614 0-.5.224-.5.5v1c0 .276.22386.5.5.5h1c.27614 0 .5-.224.5-.5v-1c0-.276-.22386-.5-.5-.5zm0-1h1c.82842 0 1.49999.6716 1.49999 1.5v1c0 .8284-.67157 1.5-1.49999 1.5h-1c-.82843 0-1.5-.6716-1.5-1.5v-1c0-.8284.67157-1.5 1.5-1.5zm0 7c-.27614 0-.5.224-.5.5v1c0 .276.22386.5.5.5h1c.27614 0 .5-.224.5-.5v-1c0-.276-.22386-.5-.5-.5zm0-1h1c.82842 0 1.49999.6716 1.49999 1.5v1c0 .8284-.67157 1.5-1.49999 1.5h-1c-.82843 0-1.5-.6716-1.5-1.5v-1c0-.8284.67157-1.5 1.5-1.5zm0 7c-.27614 0-.5.224-.5.5v1c0 .276.22386.5.5.5h1c.27614 0 .5-.224.5-.5v-1c0-.276-.22386-.5-.5-.5zm0-1h1c.82842 0 1.49999.6716 1.49999 1.5v1c0 .8284-.67157 1.5-1.49999 1.5h-1c-.82843 0-1.5-.6716-1.5-1.5v-1c0-.8284.67157-1.5 1.5-1.5z" fill="#5c75a1"/></svg>

<?xml version="1.0" encoding="UTF-8" standalone="no"?>
<!DOCTYPE svg PUBLIC "-//W3C//DTD SVG 1.1//EN" "http://www.w3.org/Graphics/SVG/1.1/DTD/svg11.dtd">
<svg xmlns="http://www.w3.org/2000/svg" xmlns:dc="http://purl.org/dc/elements/1.1/" version="1.1" xmlns:xl="http://www.w3.org/1999/xlink" viewBox="63.625 -3230.375 24.75 24.75" width="24.75" height="24.75">
  <defs/>
  <g id="SOURCES" stroke-dasharray="none" stroke-opacity="1" stroke="none" fill="none" fill-opacity="1">
    <title>SOURCES</title>
    <g id="SOURCES_Light">
      <title>Light</title>
      <g id="Graphic_12493"/>
      <g id="Graphic_12492">
        <path d="M 82.2347 -3225 C 81.95856 -3225 81.7347 -3224.776 81.7347 -3224.5 L 81.7347 -3223.5 C 81.7347 -3223.224 81.95856 -3223 82.2347 -3223 L 83.2347 -3223 C 83.51084 -3223 83.7347 -3223.224 83.7347 -3223.5 L 83.7347 -3224.5 C 83.7347 -3224.776 83.51084 -3225 83.2347 -3225 Z M 82.2347 -3226 L 83.2347 -3226 C 84.06312 -3226 84.73469 -3225.3284 84.73469 -3224.5 L 84.73469 -3223.5 C 84.73469 -3222.6716 84.06312 -3222 83.2347 -3222 L 82.2347 -3222 C 81.40627 -3222 80.7347 -3222.6716 80.7347 -3223.5 L 80.7347 -3224.5 C 80.7347 -3225.3284 81.40627 -3226 82.2347 -3226 Z M 82.2347 -3219 C 81.95856 -3219 81.7347 -3218.776 81.7347 -3218.5 L 81.7347 -3217.5 C 81.7347 -3217.224 81.95856 -3217 82.2347 -3217 L 83.2347 -3217 C 83.51084 -3217 83.7347 -3217.224 83.7347 -3217.5 L 83.7347 -3218.5 C 83.7347 -3218.776 83.51084 -3219 83.2347 -3219 Z M 82.2347 -3220 L 83.2347 -3220 C 84.06312 -3220 84.73469 -3219.3284 84.73469 -3218.5 L 84.73469 -3217.5 C 84.73469 -3216.6716 84.06312 -3216 83.2347 -3216 L 82.2347 -3216 C 81.40627 -3216 80.7347 -3216.6716 80.7347 -3217.5 L 80.7347 -3218.5 C 80.7347 -3219.3284 81.40627 -3220 82.2347 -3220 Z M 82.2347 -3213 C 81.95856 -3213 81.7347 -3212.776 81.7347 -3212.5 L 81.7347 -3211.5 C 81.7347 -3211.224 81.95856 -3211 82.2347 -3211 L 83.2347 -3211 C 83.51084 -3211 83.7347 -3211.224 83.7347 -3211.5 L 83.7347 -3212.5 C 83.7347 -3212.776 83.51084 -3213 83.2347 -3213 Z M 82.2347 -3214 L 83.2347 -3214 C 84.06312 -3214 84.73469 -3213.3284 84.73469 -3212.5 L 84.73469 -3211.5 C 84.73469 -3210.6716 84.06312 -3210 83.2347 -3210 L 82.2347 -3210 C 81.40627 -3210 80.7347 -3210.6716 80.7347 -3211.5 L 80.7347 -3212.5 C 80.7347 -3213.3284 81.40627 -3214 82.2347 -3214 Z" fill="#5c75a1"/>
      </g>
    </g>
  </g>
</svg>
